X: 5
T: The Golden Stud
R: reel
M: 4/4
L: 1/8
K: Bmin
|:B3d c3e |d3f edce |f2 df edce |dBcA B3d |
B3d c3e |d3f edce |f2 df edce |dBcA B3f :||
|:g2 ef gfeg |f2 de fedf |e2 cd edce |dBcA B3f |
g2 ef gfeg |f2 de fedf |e2 cd edce |dBcA B4:|


Tune 4740	Setting 4740

